Simply-Blue-Circles/scalable/apps/vim.svg

<svg xmlns="http://www.w3.org/2000/svg" width="48" height="48" viewBox="0 0 12.7 12.7"><path fill="#2c89a0" d="M6.344.073a6.29 6.29 0 0 0-6.29 6.29 6.29 6.29 0 0 0 6.29 6.288 6.29 6.29 0 0 0 6.29-6.289 6.29 6.29 0 0 0-6.29-6.29zm-.018.936a5.407 5.407 0 0 1 5.407 5.407 5.407 5.407 0 0 1-5.407 5.407A5.407 5.407 0 0 1 .92 6.416 5.407 5.407 0 0 1 6.326 1.01zm.19 1.271a.559.559 0 0 0-.396.165l-.479.478a.485.485 0 0 0-.338-.138H2.947a.49.49 0 0 0-.489.488v.214c0 .269.22.487.489.487h.146V5.47l-.53.53a.56.56 0 0 0 0 .794l.53.53v2.379c0 .268.024.488.292.488.36.02.399-.075 1.157-.836l.29-.293L6.12 10.35c.22.22.573.22.793 0l3.556-3.556a.56.56 0 0 0 0-.793L9.157 4.688l.79-.8a.48.48 0 0 0 .127-.213.477.477 0 0 0 .036-.188v-.214a.485.485 0 0 0-.483-.488H7.822a.477.477 0 0 0-.379.19l-.53-.53a.56.56 0 0 0-.397-.165zm0 .304a.51.51 0 0 1 .365.152l.465.464a.493.493 0 0 0-.007.074v.213c0 .269.183.487.451.487h.13s-1.6 1.64-2.76 2.8v-2.8h.143a.489.489 0 0 0 .487-.487v-.213a.482.482 0 0 0-.027-.151l.388-.387a.515.515 0 0 1 .365-.152zm2.48 2.266l1.157 1.157a.516.516 0 0 1 0 .731L6.881 10.01a.515.515 0 0 1-.73 0L5.016 8.875l3.98-4.025zm-5.903.943v1.16l-.214-.215a.516.516 0 0 1 0-.73l.214-.215z"/></svg>

<?xml version="1.0" encoding="UTF-8" standalone="no"?>
<svg
   xmlns:dc="http://purl.org/dc/elements/1.1/"
   xmlns:cc="http://creativecommons.org/ns#"
   xmlns:rdf="http://www.w3.org/1999/02/22-rdf-syntax-ns#"
   xmlns:svg="http://www.w3.org/2000/svg"
   xmlns="http://www.w3.org/2000/svg"
   xmlns:sodipodi="http://sodipodi.sourceforge.net/DTD/sodipodi-0.dtd"
   xmlns:inkscape="http://www.inkscape.org/namespaces/inkscape"
   width="48"
   height="48"
   viewBox="0 0 12.7 12.7"
   version="1.1"
   id="svg4"
   sodipodi:docname="vim.svg"
   inkscape:version="0.92.4 (5da689c313, 2019-01-14)">
  <metadata
     id="metadata10">
    <rdf:RDF>
      <cc:Work
         rdf:about="">
        <dc:format>image/svg+xml</dc:format>
        <dc:type
           rdf:resource="http://purl.org/dc/dcmitype/StillImage" />
        <dc:title></dc:title>
      </cc:Work>
    </rdf:RDF>
  </metadata>
  <defs
     id="defs8" />
  <sodipodi:namedview
     pagecolor="#ffffff"
     bordercolor="#666666"
     borderopacity="1"
     objecttolerance="10"
     gridtolerance="10"
     guidetolerance="10"
     inkscape:pageopacity="0"
     inkscape:pageshadow="2"
     inkscape:window-width="1087"
     inkscape:window-height="480"
     id="namedview6"
     showgrid="false"
     inkscape:zoom="4.9166667"
     inkscape:cx="2.1355932"
     inkscape:cy="24"
     inkscape:window-x="0"
     inkscape:window-y="25"
     inkscape:window-maximized="0"
     inkscape:current-layer="svg4" />
  <path
     d="m 6.344,0.073 a 6.29,6.29 0 0 0 -6.29,6.29 6.29,6.29 0 0 0 6.29,6.288 6.29,6.29 0 0 0 6.29,-6.289 6.29,6.29 0 0 0 -6.29,-6.29 z M 6.326,1.009 A 5.407,5.407 0 0 1 11.733,6.416 5.407,5.407 0 0 1 6.326,11.823 5.407,5.407 0 0 1 0.92,6.416 5.407,5.407 0 0 1 6.326,1.01 Z M 6.516,2.28 A 0.559,0.559 0 0 0 6.12,2.445 L 5.641,2.923 A 0.485,0.485 0 0 0 5.303,2.785 H 2.947 A 0.49,0.49 0 0 0 2.458,3.273 v 0.214 c 0,0.269 0.22,0.487 0.489,0.487 H 3.093 V 5.47 L 2.563,6 a 0.56,0.56 0 0 0 0,0.794 l 0.53,0.53 v 2.379 c 0,0.268 0.024,0.488 0.292,0.488 0.36,0.02 0.399,-0.075 1.157,-0.836 L 4.832,9.062 6.12,10.35 c 0.22,0.22 0.573,0.22 0.793,0 l 3.556,-3.556 a 0.56,0.56 0 0 0 0,-0.793 L 9.157,4.688 9.947,3.888 A 0.48,0.48 0 0 0 10.074,3.675 0.477,0.477 0 0 0 10.11,3.487 V 3.273 A 0.485,0.485 0 0 0 9.627,2.785 H 7.822 A 0.477,0.477 0 0 0 7.443,2.975 L 6.913,2.445 A 0.56,0.56 0 0 0 6.516,2.28 Z m 0,0.304 c 0.132,0 0.264,0.05 0.365,0.152 L 7.346,3.2 A 0.493,0.493 0 0 0 7.339,3.274 v 0.213 c 0,0.269 0.183,0.487 0.451,0.487 h 0.13 c 0,0 -1.6,1.64 -2.76,2.8 v -2.8 H 5.303 A 0.489,0.489 0 0 0 5.79,3.487 V 3.274 A 0.482,0.482 0 0 0 5.763,3.123 L 6.151,2.736 A 0.515,0.515 0 0 1 6.516,2.584 Z m 2.48,2.266 1.157,1.157 a 0.516,0.516 0 0 1 0,0.731 L 6.881,10.01 a 0.515,0.515 0 0 1 -0.73,0 L 5.016,8.875 Z M 3.093,5.793 v 1.16 L 2.879,6.738 a 0.516,0.516 0 0 1 0,-0.73 z"
     id="path2"
     inkscape:connector-curvature="0"
     style="fill:#2c89a0" />
</svg>
